icons/lines/notification.svg

<svg xmlns="http://www.w3.org/2000/svg" width="24" height="24" viewBox="0 0 24 24" fill="none" stroke="currentColor" stroke-width="2" stroke-linecap="round" stroke-linejoin="round" >
  <path d="M12.0196 2.90997C8.7096 2.90997 6.0196 5.59997 6.0196 8.90997V11.8C6.0196 12.41 5.7596 13.34 5.4496 13.86L4.2996 15.77C3.5896 16.95 4.0796 18.26 5.3796 18.7C9.6896 20.14 14.3396 20.14 18.6496 18.7C19.8596 18.3 20.3896 16.87 19.7296 15.77L18.5796 13.86C18.2796 13.34 18.0196 12.41 18.0196 11.8V8.90997C18.0196 5.60997 15.3196 2.90997 12.0196 2.90997Z" stroke-miterlimit="10"/>
  <path d="M13.8699 3.2C13.5599 3.11 13.2399 3.04 12.9099 3C11.9499 2.88 11.0299 2.95 10.1699 3.2C10.4599 2.46 11.1799 1.94 12.0199 1.94C12.8599 1.94 13.5799 2.46 13.8699 3.2Z" stroke-miterlimit="10"/>
  <path d="M15.0195 19.06C15.0195 20.71 13.6695 22.06 12.0195 22.06C11.1995 22.06 10.4395 21.72 9.89953 21.18C9.35953 20.64 9.01953 19.88 9.01953 19.06" stroke-miterlimit="10"/>
  </svg>

<svg xmlns="http://www.w3.org/2000/svg" width="24" height="24" viewBox="0 0 24 24" fill="none" stroke="currentColor" stroke-width="2" stroke-linecap="round" stroke-linejoin="round">
  <path d="M12.02 2.91a6 6 0 0 0-6 6v2.89c0 .61-.26 1.54-.57 2.06L4.3 15.77c-.71 1.18-.22 2.49 1.08 2.93a21 21 0 0 0 13.27 0 2 2 0 0 0 1.08-2.93l-1.15-1.91c-.3-.52-.56-1.45-.56-2.06V8.91c0-3.3-2.7-6-6-6" />
  <path d="M13.87 3.2a6 6 0 0 0-.96-.2 6.8 6.8 0 0 0-2.74.2 2 2 0 0 1 3.7 0" />
  <path d="M15.02 19.06a3 3 0 0 1-6 0" />
</svg>
